teeny/solid/pie-chart.svg

<svg width="15" height="15" viewBox="0 0 15 15" fill="none" xmlns="http://www.w3.org/2000/svg">
<path d="M7 0.0164185C3.09098 0.273712 0 3.52589 0 7.50002C0 11.6422 3.35786 15 7.5 15C9.39113 15 11.1188 14.3001 12.438 13.1451L7.15045 7.85754C7.05532 7.76453 7 7.63608 7 7.50002V0.0164185Z" fill="black"/>
<path d="M13.1451 12.438C14.3001 11.1188 15 9.39113 15 7.50002C15 6.4718 14.7931 5.49191 14.4186 4.59972L8.3441 7.63698L13.1451 12.438Z" fill="black"/>
<path d="M13.9708 3.70562C12.7472 1.62346 10.5473 0.18408 8 0.0164185V6.691L13.9708 3.70562Z" fill="black"/>
</svg>

<svg viewBox="0 0 15 15" xmlns="http://www.w3.org/2000/svg"><g><path d="M7 .01c-3.91.25-7 3.5-7 7.48 0 4.14 3.35 7.49 7.5 7.49 1.89 0 3.61-.7 4.93-1.86L7.14 7.83c-.1-.1-.16-.23-.16-.36V-.02Z"/><path d="M13.14 12.43c1.15-1.32 1.85-3.05 1.85-4.94 0-1.03-.21-2.01-.59-2.91L8.32 7.61l4.801 4.8Z"/><path d="M13.97 3.7C12.74 1.61 10.54.17 7.99.01v6.67l5.97-2.99Z"/></g></svg>
